X: 236
T:Lord Seymour's Waltz. CJF.236
M:3/8
L:1/16
Q:60
S:C.J.Fox MS, 1829/33, Beverley,E.Yorks.
R:Waltz
O:England
A:East Yorkshire
B:Kidson Coll.Mitchell Lib.M1805
Z:vmp.P J Headford 2000
K:G
Bc|d3gfg|B3GBd|dccBce|eddcBc|!
d3gfg|B3GBd|dcecAF|G4:|!
|:dg|gffdfa|aggBdg|gffdfa|g4Bc|!
d3gfg|B3GBd|dcecAF|G4:|!
K:D
|:FG|ABcdef|d3Adf|efedcB|ABAGFG|!
ABcdef|d3Adf|efedce|d4:|!
|:fa|aggfga|baagfa|aggfgb|a4(FG)|!
ABcdef|d3Adf|efedce|d4:|]
K:G
